src/assets/filled/FolderCross.svg

<?xml version="1.0" encoding="UTF-8"?>
<svg width="24" height="24" viewBox="0 0 24 24" xmlns="http://www.w3.org/2000/svg">
 <path d="m21.017 7.9918c0.3979 0.56658-0.0764 1.2582-0.7687 1.2582h-17.248c-0.55228 0-1-0.44772-1-1v-1.83c0-2.44 1.98-4.42 4.42-4.42h2.32c1.63 0 2.14 0.53 2.79 1.4l1.4 1.86c0.31 0.41 0.35 0.46 0.93 0.46h2.79c1.8046 0 3.4016 0.89709 4.3669 2.2718z"/>
 <path d="m21.983 11.746c-0.0019-0.551-0.4491-0.9966-1-0.9966l-17.983 3e-4c-0.55227 0-0.99998 0.4477-0.99998 1v4.9c0 2.95 2.4 5.35 5.35 5.35h9.3c2.95 0 5.35-2.4 5.35-5.35l-0.0166-4.9037zm-7.6434 6.5337c-0.15 0.14-0.34 0.22-0.53 0.22s-0.39-0.08-0.53-0.22l-1.24-1.24-1.28 1.28c-0.14 0.14-0.34 0.22-0.53 0.22s-0.38-0.08-0.53-0.22c-0.29-0.29-0.29-0.77 0-1.06l1.28-1.28-1.24-1.24c-0.29-0.29-0.29-0.77 0-1.06 0.3-0.29 0.77-0.29 1.06 0l1.24 1.24 1.2-1.2c0.29-0.29 0.76-0.29 1.06 0 0.29 0.3 0.29 0.77 0 1.06l-1.2 1.2 1.24 1.24c0.29 0.29 0.29 0.77 0 1.06z"/>
</svg>

<svg width="24" height="24" viewBox="0 0 24 24"  xmlns="http://www.w3.org/2000/svg">
<path d="M21.0169 7.99175C21.4148 8.55833 20.9405 9.25 20.2482 9.25H3C2.44772 9.25 2 8.80228 2 8.25V6.42C2 3.98 3.98 2 6.42 2H8.74C10.37 2 10.88 2.53 11.53 3.4L12.93 5.26C13.24 5.67 13.28 5.72 13.86 5.72H16.65C18.4546 5.72 20.0516 6.61709 21.0169 7.99175Z" />
<path d="M21.9834 11.7464C21.9815 11.1954 21.5343 10.7498 20.9834 10.7498L2.99998 10.7501C2.44771 10.7501 2 11.1978 2 11.7501V16.6501C2 19.6001 4.4 22.0001 7.35 22.0001H16.65C19.6 22.0001 22 19.6001 22 16.6501L21.9834 11.7464ZM14.34 18.2801C14.19 18.4201 14 18.5001 13.81 18.5001C13.62 18.5001 13.42 18.4201 13.28 18.2801L12.04 17.0401L10.76 18.3201C10.62 18.4601 10.42 18.5401 10.23 18.5401C10.04 18.5401 9.85 18.4601 9.7 18.3201C9.41 18.0301 9.41 17.5501 9.7 17.2601L10.98 15.9801L9.74 14.7401C9.45 14.4501 9.45 13.9701 9.74 13.6801C10.04 13.3901 10.51 13.3901 10.8 13.6801L12.04 14.9201L13.24 13.7201C13.53 13.4301 14 13.4301 14.3 13.7201C14.59 14.0201 14.59 14.4901 14.3 14.7801L13.1 15.9801L14.34 17.2201C14.63 17.5101 14.63 17.9901 14.34 18.2801Z" />
</svg>
